docs/img/attention.svg

<svg width="40" height="36" viewBox="0 0 40 36" fill="none" xmlns="http://www.w3.org/2000/svg">
<path d="M39.5567 30.7822L22.89 1.89328C22.3133 0.895501 21.2344 0.222168 20 0.222168C18.7656 0.222168 17.6867 0.895501 17.11 1.89328L0.443333 30.7822C0.162222 31.2711 0 31.8388 0 32.4444C0 34.2844 1.49333 35.7777 3.33333 35.7777H36.6667C38.5067 35.7777 40 34.2844 40 32.4444C40 31.8388 39.8389 31.2711 39.5567 30.7822ZM3.33111 32.4477L19.9967 3.5555H20L20.0022 3.55883L36.6667 32.4444L3.33111 32.4477ZM20 24.6666C18.7733 24.6666 17.7778 25.6622 17.7778 26.8888C17.7778 28.1166 18.7722 29.1111 20 29.1111C21.2278 29.1111 22.2222 28.1155 22.2222 26.8888C22.2222 25.6622 21.2278 24.6666 20 24.6666ZM17.7778 14.6666C17.7778 14.7933 17.7889 14.9188 17.8089 15.0399L18.9033 21.52C18.9933 22.0455 19.45 22.4444 20 22.4444C20.55 22.4444 21.0067 22.0455 21.0956 21.5199L22.19 15.0399C22.2111 14.9188 22.2222 14.7933 22.2222 14.6666C22.2222 13.4399 21.2278 12.4444 20 12.4444C18.7733 12.4444 17.7778 13.4399 17.7778 14.6666Z" fill="#FFDAB4"/>
</svg>

<svg width="40" height="36" fill="none" xmlns="http://www.w3.org/2000/svg"><path d="M39.557 30.782L22.89 1.893A3.337 3.337 0 0 0 20 .223a3.337 3.337 0 0 0-2.89 1.67L.443 30.783a3.335 3.335 0 0 0 2.89 4.996h33.334a3.334 3.334 0 0 0 2.89-4.997zM3.33 32.448L19.997 3.555H20l.002.004 16.665 28.885-33.336.004zM20 24.667a2.223 2.223 0 1 0 .002 4.446A2.223 2.223 0 0 0 20 24.667zm-2.222-10c0 .126.01.252.03.373l1.095 6.48a1.113 1.113 0 0 0 2.193 0l1.094-6.48a2.222 2.222 0 1 0-4.412-.373z" fill="#FFDAB4"/></svg>
